src/svgs/floppy.svg

<?xml version="1.0" encoding="UTF-8" standalone="yes"?>
<svg viewBox="0 0 18 18" xmlns="http://www.w3.org/2000/svg">
  <path d="M11 9H7V10H11V9Z"/>
  <path d="M11 11H7V12H11V11Z"/>
  <path fill-rule="evenodd" clip-rule="evenodd" d="M4 3C3.44772 3 3 3.44772 3 4V14C3 14.5523 3.44772 15 4 15H14C14.5523 15 15 14.5523 15 14V5L13 3H4ZM12 4H6V6H12V4ZM12 8H6V13H12V8Z"/>
</svg>

<?xml version="1.0" encoding="UTF-8" standalone="yes"?>
<svg viewBox="0 0 18 18">
  <path d="M4,3C3,3,3,4,3,4v10c0,1,1,1,1,1h10c1,0,1-1,1-1V5l-2-2h-1H6H4z M6,4h6v2H6V4z M6,8h6v5H6V8z M7,9v1h4V9H7z M7,11v1h4v-1H7z
	"/>
</svg>
